X: 2026
T: Ashmolean House
R: reel
M: 4/4
K: Dmajor
|:AF F2 EDBA|D2ED FA A2|defd efdB|AFDE FEE2|
AF F2 EDBA|D2ED FAA2|ABde dBA2|BDEG FDD2:|
|:defg a3b|afdf edBA|defg a3b|afdf e3g|
fd d2 Addf|edAd efge|dBAF BA A2|BDEG FDD2:|

